X:1
T: Boyle O'Reilly's Reel
C:
R:Reel
Q: 232
K:G
M:4/4
L:1/8
|:dc|Bc AB G2 B2|AD FD AD FD|Bc AB G2 B2|BG AF BE E2|Bc AB G2 B2|AD FD AD FD|EG FA GB eg|fg af g2 ef|
ge Be ge be|fd BF AD FD|ge Be ge be|fg af ge e2|ge Be ge be|fd AF FD D2|EG FA GB Ag|fg af g2 ef|
ge Be ge be|fd BF AD FD|ge Be ge be|fg af ge e2|ge Be ge be|fd AF FD D2|EG FA GB Ag|fg af g2 dc|
Bc AB G2 B2|AD FD AD FD|Bc AB G2 B2|BG AF BE E2|Bc AB G2 B2|AD FD AD FD|EG FA GB eg|fg af g2||
